jekyll/assets/img/compass/nodejs.svg

<?xml version="1.0" encoding="utf-8"?>
<svg fill="none" height="48" viewBox="0 0 48 48" width="48" xmlns="http://www.w3.org/2000/svg">
    <path clip-rule="evenodd" d="m22.1909 43.5961c.4773.257.9913.4039 1.542.4039s1.1015-.1469 1.542-.3671l14.6489-8.481c.9546-.5507 1.542-1.5787 1.542-2.6801v-16.9252c0-1.1014-.5874-2.1294-1.542-2.6801l-14.6489-8.481c-.9178-.514-2.1661-.514-3.084 0l-14.64891 8.4443c-.95457.5507-1.54199 1.5787-1.54199 2.6801v16.9252c0 1.1014.58742 2.1294 1.61542 2.7168l3.85498 2.2029c1.8724.9178 2.5332.9178 3.3777.9178 2.7535 0 4.3323-1.6888 4.3323-4.5892v-16.705c0-.257-.2203-.4405-.4406-.4405h-1.8724c-.257 0-.4406.2203-.4406.4405v16.705c0 1.285-1.3584 2.57-3.5246 1.4685l-4.00179-2.313c-.14685-.0734-.22028-.257-.22028-.4038v-16.9252c0-.1469.07343-.3305.22028-.4039l14.64899-8.44423c.1101-.07343.2937-.07343.4405 0l14.5755 8.44423c.1468.0734.2203.2203.2203.4039v16.9619c0 .1836-.0735.3304-.2203.4038l-14.6489 8.481c-.1101.0734-.2937.0734-.4406 0l-3.7448-2.2396c-.1102-.0734-.257-.1101-.3672-.0367-1.028.5875-1.2115.6609-2.2028.9913-.2203.0734-.5875.2203.1468.6241zm-1.6521-16.6682c0 2.4966 1.3217 5.4337 7.7467 5.4337 4.6259 0 7.3061-1.8357 7.3061-5.0298 0-3.1574-2.1294-4.0019-6.6453-4.5893-4.5525-.5874-5.0298-.9178-5.0298-1.9825 0-.8812.4038-2.056 3.7815-2.056 3.0106 0 4.1487.6608 4.5893 2.6801.0367.1836.2203.3304.4039.3304h1.9091c.1101 0 .2203-.0734.2937-.1468.0734-.1102.1101-.2203.1101-.3304-.2937-3.5246-2.6067-5.14-7.3061-5.14-4.1854 0-6.682 1.7623-6.682 4.7361 0 3.1941 2.4599 4.0752 6.5352 4.4424 4.8095.4773 5.1767 1.1748 5.1767 2.1294 0 1.6522-1.3217 2.3497-4.4057 2.3497-3.8917 0-4.7362-.9545-5.0299-2.9004 0-.2203-.1835-.3671-.4038-.3671h-1.9092c-.257 0-.4405.2202-.4405.4405z" fill="#161616" fill-rule="evenodd"/>
</svg>

<?xml version="1.0" encoding="utf-8"?>
<svg width="40" height="40" viewBox="4 4 44 44" fill="none" xmlns="http://www.w3.org/2000/svg">
    <path fill-rule="evenodd" clip-rule="evenodd" d="M22.1909 43.5961C22.6682 43.8531 23.1822 44 23.7329 44C24.2836 44 24.8344 43.8531 25.2749 43.6329L39.9238 35.1519C40.8784 34.6012 41.4658 33.5732 41.4658 32.4718V15.5466C41.4658 14.4452 40.8784 13.4172 39.9238 12.8665L25.2749 4.3855C24.3571 3.8715 23.1088 3.8715 22.1909 4.3855L7.54199 12.8298C6.58742 13.3805 6 14.4085 6 15.5099V32.4351C6 33.5365 6.58742 34.5645 7.61542 35.1519L11.4704 37.3548C13.3428 38.2726 14.0036 38.2726 14.8481 38.2726C17.6016 38.2726 19.1804 36.5838 19.1804 33.6834V16.9784C19.1804 16.7214 18.9601 16.5379 18.7398 16.5379H16.8674C16.6104 16.5379 16.4268 16.7582 16.4268 16.9784V33.6834C16.4268 34.9684 15.0684 36.2534 12.9022 35.1519L8.90041 32.8389C8.75356 32.7655 8.68013 32.5819 8.68013 32.4351V15.5099C8.68013 15.363 8.75356 15.1794 8.90041 15.106L23.5494 6.66177C23.6595 6.58834 23.8431 6.58834 23.9899 6.66177L38.5654 15.106C38.7122 15.1794 38.7857 15.3263 38.7857 15.5099V32.4718C38.7857 32.6554 38.7122 32.8022 38.5654 32.8756L23.9165 41.3566C23.8064 41.43 23.6228 41.43 23.4759 41.3566L19.7311 39.117C19.6209 39.0436 19.4741 39.0069 19.3639 39.0803C18.3359 39.6678 18.1524 39.7412 17.1611 40.0716C16.9408 40.145 16.5736 40.2919 17.3079 40.6957L22.1909 43.5961ZM20.5388 26.9279C20.5388 29.4245 21.8605 32.3616 28.2855 32.3616C32.9114 32.3616 35.5916 30.5259 35.5916 27.3318C35.5916 24.1744 33.4622 23.3299 28.9463 22.7425C24.3938 22.1551 23.9165 21.8247 23.9165 20.76C23.9165 19.8788 24.3203 18.704 27.698 18.704C30.7086 18.704 31.8467 19.3648 32.2873 21.3841C32.324 21.5677 32.5076 21.7145 32.6912 21.7145H34.6003C34.7104 21.7145 34.8206 21.6411 34.894 21.5677C34.9674 21.4575 35.0041 21.3474 35.0041 21.2373C34.7104 17.7127 32.3974 16.0973 27.698 16.0973C23.5126 16.0973 21.016 17.8596 21.016 20.8334C21.016 24.0275 23.4759 24.9086 27.5512 25.2758C32.3607 25.7531 32.7279 26.4506 32.7279 27.4052C32.7279 29.0574 31.4062 29.7549 28.3222 29.7549C24.4305 29.7549 23.586 28.8004 23.2923 26.8545C23.2923 26.6342 23.1088 26.4874 22.8885 26.4874H20.9793C20.7223 26.4874 20.5388 26.7076 20.5388 26.9279Z" fill="#161616"/>
</svg>
